X:1
T:Impertinence
T:Haendel HWV 494
T:Impertinence HWV 494
T:Haendel
T:Impertinence
Z:Impertinence
%%score { 1 | 2 }
L:1/8
Q:1/4=200
M:2/2
K:Bb
V:1 treble nm="Clave" snm="Cl"
V:2 bass 
V:1
"^Vivo" D2 | G2 B2 A2 G^F | G4 D4 | AB c2 B2 A2 | B4 G4 | Bc d2 c2 B2 | c4 F2 d2 | e4 Tc4 | d6 :: %9
 d2 | de f2 e2 d2 | e4 c4 | cd e2 d2 c2 | d4 B4 | Bc d2 c2 B2 | AB c2 B2 A2 | B2 AB G2 g2 | %17
 ^f4 d4 | g2 a2 bag^f | g4 d4 | edcB TA4 | G6 :| %22
V:2
 z2 | z4 z2 D,2 | G,2 A,2 B,2 A,G, | ^F,4 D,4 | G,2 G,,A,, B,,2 C,2 | D,2 B,,2 A,,2 G,,2 | %6
 F,,2 F,2 E,2 D,2 | C,4 E,4 | D,6 :: z2 | z4 z2 B,2 | C2 D2 E2 C2 | A,4 F,4 | B,2 C2 D2 B,2 | %14
 G,4 E4 | ^F,4 D4 | G,4 E,4 | D,2 C,D, B,,2 G,,2 | E,2 C,2 D,2 D2 | E2 DC B,2 G,2 | C2 A,2 D2 D,2 | %21
 G,6 :| %22

